papirus-arc-dark/32x32/places/user-desktop.svg

<?xml version="1.0" encoding="UTF-8" standalone="no"?>
<svg id="svg4222" xmlns:rdf="http://www.w3.org/1999/02/22-rdf-syntax-ns#" xmlns="http://www.w3.org/2000/svg" height="32" viewBox="0 0 32 32" width="32" version="1.1" xmlns:cc="http://creativecommons.org/ns#" xmlns:dc="http://purl.org/dc/elements/1.1/">
 <metadata id="metadata4227">
  <rdf:RDF>
   <cc:Work rdf:about="">
    <dc:format>image/svg+xml</dc:format>
    <dc:type rdf:resource="http://purl.org/dc/dcmitype/StillImage"/>
    <dc:title/>
   </cc:Work>
  </rdf:RDF>
 </metadata>
 <path id="rect4203" fill="#6ba4e7" d="m3 8v17.778c0 0.6771 0.5575 1.2222 1.25 1.2222h22.5c0.6925 0 1.25-0.5451 1.25-1.2222v-17.778z"/>
 <path id="rect3328" fill="#383c4a" d="m4.25 5c-0.6925 0-1.25 0.5451-1.25 1.2222v1.7778h25v-1.7778c0-0.6771-0.558-1.2222-1.25-1.2222z"/>
 <path id="rect4155" fill="#383c4a" d="m10.3 24c-0.7202 0-1.3 0.669-1.3 1.5v1.5h13v-1.5c0-0.831-0.58-1.5-1.3-1.5h-10.4z"/>
 <path id="path4162" opacity=".1" fill="#fff" d="m4.25 5c-0.6925 0-1.25 0.5456-1.25 1.2227v1c0-0.6771 0.5575-1.2227 1.25-1.2227h22.5c0.692 0 1.25 0.5456 1.25 1.2227v-1c0-0.6771-0.558-1.2227-1.25-1.2227h-22.5z"/>
 <path id="path4167" opacity=".2" d="m3 25.777v1c0 0.677 0.5575 1.223 1.25 1.223h22.5c0.692 0 1.25-0.546 1.25-1.223v-1c0 0.677-0.558 1.223-1.25 1.223h-22.5c-0.6925 0-1.25-0.546-1.25-1.223z"/>
</svg>

<?xml version="1.0" encoding="UTF-8" standalone="no"?>
<svg
   xmlns:dc="http://purl.org/dc/elements/1.1/"
   xmlns:cc="http://creativecommons.org/ns#"
   xmlns:rdf="http://www.w3.org/1999/02/22-rdf-syntax-ns#"
   xmlns:svg="http://www.w3.org/2000/svg"
   xmlns="http://www.w3.org/2000/svg"
   viewBox="0 0 32 32"
   version="1.1"
   width="32"
   height="32"
   id="svg4222">
  <defs
     id="defs12" />
  <metadata
     id="metadata4227">
    <rdf:RDF>
      <cc:Work
         rdf:about="">
        <dc:format>image/svg+xml</dc:format>
        <dc:type
           rdf:resource="http://purl.org/dc/dcmitype/StillImage" />
        <dc:title></dc:title>
      </cc:Work>
    </rdf:RDF>
  </metadata>
  <path
     id="rect4203"
     d="m 3,8 0,17.778 c 0,0.6771 0.5575,1.2222 1.25,1.2222 l 22.5,0 c 0.6925,0 1.25,-0.5451 1.25,-1.2222 L 28,8 Z"
     style="fill:#6ba4e7;fill-opacity:1" />
  <path
     id="rect3328"
     d="M 4.25,5 C 3.5575,5 3,5.5451 3,6.2222 L 3,8 28,8 28,6.2222 C 28,5.5451 27.4425,5 26.75,5 Z"
     style="fill:#383c4a" />
  <path
     id="rect4155"
     d="M 10.3,24 C 9.5798,24 9,24.669 9,25.5 l 0,1.5 13,0 0,-1.5 C 22,24.669 21.4202,24 20.7,24 l -10.4,0 z"
     style="fill:#383c4a" />
  <path
     id="path4162"
     d="M 4.25,5 C 3.5575,5 3,5.5456 3,6.2227 l 0,1 C 3,6.5456 3.5575,6 4.25,6 l 22.5,0 C 27.4425,6 28,6.5456 28,7.2227 l 0,-1 C 28,5.5456 27.4425,5 26.75,5 L 4.25,5 Z"
     style="opacity:0.1;fill:#ffffff" />
  <path
     id="path4167"
     d="m 3,24.7 0,1 c 0,0.6771 0.5575,1.2227 1.25,1.2227 l 22.5,0 c 0.6925,0 1.25,-0.5456 1.25,-1.2227 l 0,-1 c 0,0.6771 -0.5575,1.2227 -1.25,1.2227 l -22.5,0 C 3.5575,25.9227 3,25.3771 3,24.7 Z"
     style="opacity:0.3" />
</svg>
